assets/panels/panel108_chapter_2_5_bits_1.svg

<?xml version="1.0" encoding="UTF-8" standalone="no"?>
<svg
   version="1.1"
   width="1448"
   height="1086"
   viewBox="0 0 1448 1086"
   preserveAspectRatio="xMidYMid meet"
   id="svg1"
   sodipodi:docname="panel108_chapter_2_5_bits_1.svg"
   inkscape:version="1.4 (86a8ad7, 2024-10-11)"
   xmlns:inkscape="http://www.inkscape.org/namespaces/inkscape"
   xmlns:sodipodi="http://sodipodi.sourceforge.net/DTD/sodipodi-0.dtd"
   xmlns:xlink="http://www.w3.org/1999/xlink"
   xmlns="http://www.w3.org/2000/svg"
   xmlns:svg="http://www.w3.org/2000/svg">
  <sodipodi:namedview
     id="namedview1"
     pagecolor="#ffffff"
     bordercolor="#000000"
     borderopacity="0.25"
     inkscape:showpageshadow="2"
     inkscape:pageopacity="0.0"
     inkscape:pagecheckerboard="0"
     inkscape:deskcolor="#d1d1d1"
     inkscape:zoom="0.89502762"
     inkscape:cx="724"
     inkscape:cy="274.29321"
     inkscape:current-layer="text-bubble-layer"
     inkscape:window-width="1920"
     inkscape:window-height="1017"
     inkscape:window-x="1432"
     inkscape:window-y="879"
     inkscape:window-maximized="1" />
  <defs
     id="defs1" />
  <image
     id="raster-base"
     x="0"
     y="0"
     width="1448"
     height="1086"
     preserveAspectRatio="none"
     href="panel106_chapter_2_5_workshop_vn.jpg"
     xlink:href="panel106_chapter_2_5_workshop_vn.jpg" />
  <g
     id="text-bubble-layer"
     inkscape:groupmode="layer"
     inkscape:label="Text bubble">
    <path
       id="speech-bubble"
       d="m 510.75,78.321 h 875.5 c 13.1168,0 23.75,10.633237 23.75,23.75 v 383.853 c 0,13.11676 -10.6332,23.75 -23.75,23.75 h -875.5 c -13.11676,0 -23.75,-10.63324 -23.75,-23.75 V 199 L 388.52469,178 487,157 v -54.929 c 0,-13.116763 10.63324,-23.75 23.75,-23.75 z"
       fill="#ffffff"
       stroke="#000000"
       stroke-width="4.2"
       stroke-linejoin="round"
       stroke-linecap="round"
       sodipodi:nodetypes="ssssssscccss" />
    <text
       id="bubble-text"
       text-anchor="middle"
       direction="rtl"
       unicode-bidi="plaintext"
       font-family="'Noto Sans Hebrew', Arial, sans-serif"
       font-size="40px"
       font-weight="400"
       fill="#000000"
       stroke="none"
       xml:space="preserve"><tspan
         x="948.5"
         y="136.284"
         id="tline1">מצוין, אני רואה שהבנת את הפרינציפ. עכשיו צריך ללמד</tspan><tspan
         x="948.5"
         y="194.284"
         id="tline2">את זה את המחשב שלנו. אנחנו יכולים לייצג מספרים</tspan><tspan
         x="948.5"
         y="252.284"
         id="tline3">באמצעות רצף של ביטים. אם אנחנו רוצים לבנות כרטיס</tspan><tspan
         x="948.5"
         y="310.284"
         id="tline4">שיבצע פעולה עם מספרים, אנחנו נכניס לתוכו בסים שייצגו</tspan><tspan
         x="948.5"
         y="368.284"
         id="tline5">מספרים. בס ברוחב 4 יכול לייצג מספר 4 ספרתי בשיטה</tspan><tspan
         x="948.5"
         y="426.284"
         id="tline6">הבינרית. אני לא בטוח שזה מספיק לנו. מה המספר הכי</tspan><tspan
         x="948.5"
         y="484.284"
         id="tline7">גדול שאפשר לייצג כך?</tspan></text>
  </g>
</svg>

<?xml version="1.0" encoding="UTF-8" standalone="no"?>
<svg
   version="1.1"
   width="1448"
   height="1086"
   viewBox="0 0 1448 1086"
   preserveAspectRatio="xMidYMid meet"
   id="svg1"
   sodipodi:docname="panel108_chapter_2_5_bits_1.svg"
   inkscape:version="1.4 (86a8ad7, 2024-10-11)"
   xmlns:inkscape="http://www.inkscape.org/namespaces/inkscape"
   xmlns:sodipodi="http://sodipodi.sourceforge.net/DTD/sodipodi-0.dtd"
   xmlns:xlink="http://www.w3.org/1999/xlink"
   xmlns="http://www.w3.org/2000/svg"
   xmlns:svg="http://www.w3.org/2000/svg">
  <sodipodi:namedview
     id="namedview1"
     pagecolor="#ffffff"
     bordercolor="#000000"
     borderopacity="0.25"
     inkscape:showpageshadow="2"
     inkscape:pageopacity="0.0"
     inkscape:pagecheckerboard="0"
     inkscape:deskcolor="#d1d1d1"
     inkscape:zoom="0.89502762"
     inkscape:cx="724"
     inkscape:cy="275"
     inkscape:current-layer="text-bubble-layer" />
  <defs
     id="defs1" />
  <image
     id="raster-base"
     x="0"
     y="0"
     width="1448"
     height="1086"
     preserveAspectRatio="none"
     href="panel106_chapter_2_5_workshop_vn.jpg"
     xlink:href="panel106_chapter_2_5_workshop_vn.jpg" />
  <g
     id="text-bubble-layer"
     inkscape:groupmode="layer"
     inkscape:label="Text bubble">
    <path
       id="speech-bubble"
       d="M 510.75,78.321 L 1386.25,78.321 A 23.75 23.75 0 0 1 1410,102.071 L 1410,485.924 A 23.75 23.75 0 0 1 1386.25,509.674 L 510.75,509.674 A 23.75 23.75 0 0 1 487,485.924 L 487,199 L 374,178 L 487,157 L 487,102.071 A 23.75 23.75 0 0 1 510.75,78.321 Z"
       fill="#ffffff"
       stroke="#000000"
       stroke-width="4.2"
       stroke-linejoin="round"
       stroke-linecap="round" />
    <text
       id="bubble-text"
       text-anchor="middle"
       direction="rtl"
       unicode-bidi="plaintext"
       font-family="'Noto Sans Hebrew', Arial, sans-serif"
       font-size="40px"
       font-weight="400"
       fill="#000000"
       stroke="none"
       xml:space="preserve"><tspan x="948.5" y="136.284" id="tline1">מצוין, אני רואה שהבנת את הפרינציפ. עכשיו צריך ללמד</tspan><tspan x="948.5" y="194.284" id="tline2">את זה את המחשב שלנו. אנחנו יכולים לייצג מספרים</tspan><tspan x="948.5" y="252.284" id="tline3">באמצעות רצף של ביטים. אם אנחנו רוצים לבנות כרטיס</tspan><tspan x="948.5" y="310.284" id="tline4">שיבצע פעולה עם מספרים, אנחנו נכניס לתוכו בסים שייצגו</tspan><tspan x="948.5" y="368.284" id="tline5">מספרים. בס ברוחב 4 יכול לייצג מספר 4 ספרתי בשיטה</tspan><tspan x="948.5" y="426.284" id="tline6">הבינרית. אני לא בטוח שזה מספיק לנו. מה המספר הכי</tspan><tspan x="948.5" y="484.284" id="tline7">גדול שאפשר לייצג כך?</tspan></text>
  </g>
</svg>
